X: 26190
T: McMahon's
R: hornpipe
M: 4/4
K: Gmajor
|:GE|DG ((3BAG) cGBG|DGBd (3ggf ga|bgeg dgBd|cBAG (3FED (3CB,A,|
DG ((3BAG) cGBG|DGBd (3ggf ga|bgeg dgBd|c<AF<A G2:|
|:ga|bg (3ggg agef|gagd ed (3B^cd|eB (3BBB eBgf|edcB AG (3EFG|
DG ((3BAG) cGBG|DGBd (3ggf ga|bgeg dgBd|c<AF<A G2:|

